X: 22292
T: La Puerta Abierta
R: reel
M: 4/4
K: Edorian
|:E2 GE GABA-|ABAG FGFD|E2 GA Bded-|dBAd- dBAG|
A2 EA ABAG-|GAAF- FDFA|B2 ed BAGE|1 AGFD E2 ED:|2 AGFD E2 Bd||
|:e2 gf edBA-|ABAB defd|e2 ef gfga-|afed edcA|
[1 A2 ed c A2 G-|GABG ABcA|Bdef- fedB|egfd egfd:|
[2 A2 ed c A2 G-|GABG ABcA|BdAG F D2 E-|EEDE GFED||

